X:80
T:Pomerleau's March (Marche a Queteux Pomerleau)
M:4/4
L:1/8
S:from Nightingale
O:c
K:G
D |:\
"G"G2A2 "D"F2D2 | "C"E2DC "D"D2D2 | "G"G2D2 G2B2 | "C"GABG "D"D2D2 |
"G"G2A2 "D"F2D2 | "C"E2DC "D"D2D2 | "G"G2D2 G2B2 |1 "G"G4 G2D2 :|2 "G"G3G GABG ||
|:\
"C"c3c "G"B2B2 | "G"B2AG "D"FGAB | "D"A2D2 "G"G2A2 | "G"B2AG "D"A2B2 |
"C"c3c "G"B2B2 | "G"B2AG "D"FGAB | "D"A2D2 G2B2 | 1"G"G3G GABG :|2 "G"G4 GD |]
